X:1
T:Title
%%score [ 1 2 3 4 ]
L:1/8
Q:1/4=96
M:2/4
K:Fmin
V:1 treble-8 nm="Tenor I"
V:2 treble-8 nm="Tenor II"
V:3 bass nm="Bass I"
V:4 bass nm="Bass II"
V:1
!p! z4 | cf ga | g2 f=e | f2 AB | c2 dB | cf ga | f2 =e2 | f3 z |!mf! f2 ff | !>!a2 !>!a2 | f2 fg | %11
w: |Er- * den, so|ra- ste am|Zie- le, Hier|la- be dich|Frie- * den nach|lan- ger|Fahrt.|Was auch dein|Herz- weh,|was auch dein|
w: |Ster- * nen, un-|ster- li- che|See- le, Du|schweb- est zum|Him- * mel auf|gold'- nem|Pfad.|Ba- dest im|Glanz- meer|gött- li- cher|
 !>!c2 !>!c2 | f2 ff | !>!a2!>(! !>!a2!>)! |!p! e2"^decresc." ee | e3 z |!pp! f2 ed | e2 ef | %18
w: Leid war,|Hei- len- den|Bal- sam|gab dir der|Tod.|Pil- ger auf|Er- den, vom|
w: Klar- heit,|Nur, was dem|Staub war,|gabst du dem|Staub.|Pil- ger auf|Ster- nen, die|
 _g2 fe | f2 ff |!<(! f2 ff | f2 ff | f2!<)!!>(! =a>g!>)! |!p! !fermata!f3 z |] %24
w: Wan- dern er-|mat- tet, Nun|ru- he im|Scho- ße der|Er- * de|aus.|
w: Trä- ne der|Sehn- sucht Ge-|lei- te zur|e- wi- gen|Hei- * mat|dich.|
V:2
!p! f2 ff | f2 cc | c2 cc | c2 ff | f2 ff | f2 cc | c2 c2 | c3 z |!mf! d2 dd | !>!f2 !>!f2 | %10
w: 1.Pil- ger auf|Er- den, so|ra- ste am|Zie- le, Hier|la- be dich|Frie- den nach|lan- ger|Fahrt.|Was auch dein|Herz- weh,|
w: 2.Pil- ger auf|Ster- nen, un-|ster- li- che|See- le, Du|schweb- est zum|Him- mel auf|gold'- nem|Pfad.|Ba- dest im|Glanz- meer|
 d2 dd | !>!G2 !>!G2 | A2 Ad | !>!c2!>(! !>!_c2!>)! |!p! B2"^decresc." =cd | c3 z |!pp! d2 cd | %17
w: was auch dein|Leid war,|Hei- len- den|Bal- sam|gab dir der|Tod.|Pil- ger auf|
w: gött- li- cher|Klar- heit,|Nur, was dem|Staub war,|gabst du dem|Staub.|Pil- ger auf|
 c2 cd | c2 dc | d2 AA |!<(! A2 AA | A2 AA | =A!<)!c!>(! =e>c!>)! |!p! !fermata!c3 z |] %24
w: Er- den, vom|Wan- dern er-|mat- tet, Nun|ru- he im|Scho- ße der|Er- * * de|aus.|
w: Ster- nen, die|Trä- ne der|Sehn- sucht Ge-|lei- te zur|e- wi- gen|Hei- * * mat|dich.|
V:3
!p! A,2 B,G, | A,2 B,C | B,2 A,G, | A,2 F,G, | A,2 B,G, | A,2 B,C | B,2 B,2 | A,3 z | %8
w: 1.Pil- ger auf|Er- den, so|ra- ste am|Zie- le, Hier|la- be dich|Frie- den nach|lan- ger|Fahrt.|
w: 2.Pil- ger auf|Ster- nen, un-|ster- li- che|See- le, Du|schweb- est zum|Him- mel auf|gold'- nem|Pfad.|
!mf! A,2 A,A, | !>!C2 !>!C2 | B,2 B,B, | !>!=E,2 !>!E,2 | F,2 F,F, | !>!F,2!>(! !>!A,2!>)! | %14
w: Was auch dein|Herz- weh,|was auch dein|Leid war,|Hei- len- den|Bal- sam|
w: Ba- dest im|Glanz- meer|gött- li- cher|Klar- heit,|Nur, was dem|Staub war,|
!p! A,2"^decresc." G,G, | A,2 A,A, |!pp! A,2 A,A, | A,2 A,A, | A,2 A,A, | A,2 A,C |!<(! =D2 CC | %21
w: gab dir der|Tod. Pil- ger,|Pil- ger auf|Er- den, vom|Wan- dern er-|mat- tet, Nun|ru- he im|
w: gabst du dem|Staub. Pil- ger,|Pil- ger auf|Ster- nen, die|Trä- ne der|Sehn- sucht Ge-|lei- te zur|
 =B,2 C=D | C!<)!=A,!>(! _B,>B,!>)! |!p! !fermata!=A,2 z x |] %24
w: Scho- ße der|Er- * * de|aus.|
w: e- wi- gen|Hei- * * mat|dich.|
V:4
!p! F,2 F,F, | F,2 F,F, | C,2 C,C, | F,2 F,F, | F,2 F,F, | F,2 F,F, | C,2 C,2 | F,3 z | %8
w: 1.Pil- ger auf|Er- den, so|ra- ste am|Zie- le, Hier|la- be dich|Frie- den nach|lan- ger|Fahrt.|
w: 2.Pil- ger auf|Ster- nen, un-|ster- li- che|See- le, Du|schweb- est zum|Him- mel auf|gold'- nem|Pfad.|
!mf! D,2 D,D, | !>!A,,2 !>!A,,2 | B,,2 B,,B,, | !>!C,2 !>!C,2 | D,2 C,B,, | %13
w: Was auch dein|Herz- weh,|was auch dein|Leid war,|Hei- len- den|
w: Ba- dest im|Glanz- meer|gött- li- cher|Klar- heit,|Nur, was dem|
 !>!A,,2!>(! !>!=D,2!>)! |!p! E,2"^decresc." E,E, | A,,3 z |!pp! D,2 A,,F,, | A,,2 A,,D, | %18
w: Bal- sam|gab dir der|Tod.|Pil- ger auf|Er- den, vom|
w: Staub war,|gabst du dem|Staub.|Pil- ger auf|Ster- nen, die|
 E,2 D,A,, | D,2 D,C, |!<(! =B,,2 C,C, | =D,2 C,=B,, | C,7/2!<)!!>(! C,/!>)! |!p! !fermata!F,3 z |] %24
w: Wan- dern er-|mat- tet, Nun|ru- he im|Scho- ße der|Er- de|aus.|
w: Trä- ne der|Sehn- sucht Ge-|lei- te zur|e- wi- gen|Hei- mat|dich.|

